source/manual/Azure Front Door Service_COLOR.svg

<svg aria-hidden="true" role="presentation">
<defs>
    <style type="text/css">
      <![CDATA[
        .msportalfx-svg-c01{fill:#fff}.msportalfx-svg-c02{fill:#e5e5e5}.msportalfx-svg-c03{fill:#a0a1a2}.msportalfx-svg-c04{fill:#7a7a7a}.msportalfx-svg-c05{fill:#3e3e3e}.msportalfx-svg-c06{fill:#1e1e1e}.msportalfx-svg-c07{fill:#0f0f0f}.msportalfx-svg-c08{fill:#ba141a}.msportalfx-svg-c09{fill:#dd5900}.msportalfx-svg-c10{fill:#ff8c00}.msportalfx-svg-c11{fill:#fcd116}.msportalfx-svg-c12{fill:#fee087}.msportalfx-svg-c13{fill:#b8d432}.msportalfx-svg-c14{fill:#7fba00}.msportalfx-svg-c15{fill:#59b4d9}.msportalfx-svg-c16{fill:#3999c6}.msportalfx-svg-c17{fill:#804998}.msportalfx-svg-c18{fill:#ec008c}.msportalfx-svg-c19{fill:#0072c6}.msportalfx-svg-c20{fill:#68217a}.msportalfx-svg-c21{fill:#00188f}.msportalfx-svg-c22{fill:#e81123}.msportalfx-svg-c23{fill:#cae3f3}.msportalfx-svg-c24{fill:#59aed3}.msportalfx-svg-c25{fill:#4c3b12}.msportalfx-svg-c26{fill:#be9555}.msportalfx-svg-c27{fill:#4f4d52}.msportalfx-svg-c28{fill:#ef6f59}.msportalfx-svg-c29{fill:#f7cb64}.msportalfx-svg-c97{fill:#ffb900}.msportalfx-svg-c98{fill:#00a4ef}.msportalfx-svg-c99{fill:#f25022}
      ]]>
    </style>
  </defs>
<g><title></title><path d="M45.139 23.099a10.94 10.94 0 0 0 .777-4.041c0-6.058-4.905-10.969-10.956-10.969-1.682 0-3.27.391-4.694 1.069C27.898 6.087 24.195 4.1 20.02 4.1c-7.151 0-12.948 5.804-12.948 12.964 0 .581.052 1.149.125 1.71C3.053 20.339.1 24.334.1 29.031.1 35.089 5.005 40 11.056 40h29.88c4.951 0 8.964-4.018 8.964-8.975a8.974 8.974 0 0 0-4.761-7.926z" class="msportalfx-svg-c15"></path><path d="M18 20h14v20.05H18z" class="msportalfx-svg-c01"></path><path opacity=".4" d="M34.938 18.847l-9.678-5.689s-.412-.21-.596-.21C23.747 12.947 23 13 23 14.738V20h10v20h3V20.422c0-.7-.424-1.324-1.062-1.575z" class="msportalfx-svg-c01"></path><path d="M34.544 18.767l-9.667-5.684c-.431-.149-.877.184-.877.655v33.57c0 .471.446.804.877.655l9.667-5.684a.687.687 0 0 0 .456-.654V19.422a.69.69 0 0 0-.456-.655z" class="msportalfx-svg-c19"></path></g>
</svg>

<?xml version="1.0" encoding="UTF-8" standalone="no"?>
<svg
   xmlns:dc="http://purl.org/dc/elements/1.1/"
   xmlns:cc="http://creativecommons.org/ns#"
   xmlns:rdf="http://www.w3.org/1999/02/22-rdf-syntax-ns#"
   xmlns:svg="http://www.w3.org/2000/svg"
   xmlns="http://www.w3.org/2000/svg"
   xmlns:sodipodi="http://sodipodi.sourceforge.net/DTD/sodipodi-0.dtd"
   xmlns:inkscape="http://www.inkscape.org/namespaces/inkscape"
   aria-hidden="true"
   role="presentation"
   version="1.1"
   id="svg18"
   sodipodi:docname="Azure Front Door Service_COLOR.svg"
   width="49.799999"
   height="43.898933"
   inkscape:version="0.92.2 (5c3e80d, 2017-08-06)">
  <metadata
     id="metadata22">
    <rdf:RDF>
      <cc:Work
         rdf:about="">
        <dc:format>image/svg+xml</dc:format>
        <dc:type
           rdf:resource="http://purl.org/dc/dcmitype/StillImage" />
      </cc:Work>
    </rdf:RDF>
  </metadata>
  <sodipodi:namedview
     pagecolor="#ffffff"
     bordercolor="#666666"
     borderopacity="1"
     objecttolerance="10"
     gridtolerance="10"
     guidetolerance="10"
     inkscape:pageopacity="0"
     inkscape:pageshadow="2"
     inkscape:window-width="640"
     inkscape:window-height="480"
     id="namedview20"
     showgrid="false"
     inkscape:zoom="2.36"
     inkscape:cx="49.9"
     inkscape:cy="-2.0010662"
     inkscape:window-x="0"
     inkscape:window-y="0"
     inkscape:window-maximized="0"
     inkscape:current-layer="svg18" />
  <defs
     id="defs4">
    <style
       type="text/css"
       id="style2"><![CDATA[
        .msportalfx-svg-c01{fill:#fff}.msportalfx-svg-c02{fill:#e5e5e5}.msportalfx-svg-c03{fill:#a0a1a2}.msportalfx-svg-c04{fill:#7a7a7a}.msportalfx-svg-c05{fill:#3e3e3e}.msportalfx-svg-c06{fill:#1e1e1e}.msportalfx-svg-c07{fill:#0f0f0f}.msportalfx-svg-c08{fill:#ba141a}.msportalfx-svg-c09{fill:#dd5900}.msportalfx-svg-c10{fill:#ff8c00}.msportalfx-svg-c11{fill:#fcd116}.msportalfx-svg-c12{fill:#fee087}.msportalfx-svg-c13{fill:#b8d432}.msportalfx-svg-c14{fill:#7fba00}.msportalfx-svg-c15{fill:#59b4d9}.msportalfx-svg-c16{fill:#3999c6}.msportalfx-svg-c17{fill:#804998}.msportalfx-svg-c18{fill:#ec008c}.msportalfx-svg-c19{fill:#0072c6}.msportalfx-svg-c20{fill:#68217a}.msportalfx-svg-c21{fill:#00188f}.msportalfx-svg-c22{fill:#e81123}.msportalfx-svg-c23{fill:#cae3f3}.msportalfx-svg-c24{fill:#59aed3}.msportalfx-svg-c25{fill:#4c3b12}.msportalfx-svg-c26{fill:#be9555}.msportalfx-svg-c27{fill:#4f4d52}.msportalfx-svg-c28{fill:#ef6f59}.msportalfx-svg-c29{fill:#f7cb64}.msportalfx-svg-c97{fill:#ffb900}.msportalfx-svg-c98{fill:#00a4ef}.msportalfx-svg-c99{fill:#f25022}
      ]]></style>
  </defs>
  <g
     id="g16"
     transform="translate(-0.1,-4.1)">
    <title
       id="title6" />
    <path
       d="m 45.139,23.099 a 10.94,10.94 0 0 0 0.777,-4.041 C 45.916,13 41.011,8.089 34.96,8.089 33.278,8.089 31.69,8.48 30.266,9.158 27.898,6.087 24.195,4.1 20.02,4.1 12.869,4.1 7.072,9.904 7.072,17.064 c 0,0.581 0.052,1.149 0.125,1.71 C 3.053,20.339 0.1,24.334 0.1,29.031 0.1,35.089 5.005,40 11.056,40 h 29.88 c 4.951,0 8.964,-4.018 8.964,-8.975 a 8.974,8.974 0 0 0 -4.761,-7.926 z"
       class="msportalfx-svg-c15"
       id="path8"
       inkscape:connector-curvature="0"
       style="fill:#59b4d9" />
    <path
       d="M 18,20 H 32 V 40.05 H 18 Z"
       class="msportalfx-svg-c01"
       id="path10"
       inkscape:connector-curvature="0"
       style="fill:#ffffff" />
    <path
       d="M 34.938,18.847 25.26,13.158 c 0,0 -0.412,-0.21 -0.596,-0.21 C 23.747,12.947 23,13 23,14.738 V 20 h 10 v 20 h 3 V 20.422 c 0,-0.7 -0.424,-1.324 -1.062,-1.575 z"
       class="msportalfx-svg-c01"
       id="path12"
       inkscape:connector-curvature="0"
       style="opacity:0.4;fill:#ffffff" />
    <path
       d="M 34.544,18.767 24.877,13.083 C 24.446,12.934 24,13.267 24,13.738 v 33.57 c 0,0.471 0.446,0.804 0.877,0.655 l 9.667,-5.684 A 0.687,0.687 0 0 0 35,41.625 V 19.422 a 0.69,0.69 0 0 0 -0.456,-0.655 z"
       class="msportalfx-svg-c19"
       id="path14"
       inkscape:connector-curvature="0"
       style="fill:#0072c6" />
  </g>
</svg>
